X:1
T:Haste to the Wedding
N:from the box playing of Sally Sloane
Z:Ian Hayden 2017
L:1/8
M:6/8
K:Dmaj
|:B|AFA Adf|ede fdB|AFA AFD|F2E E2F|
|AFA Adf|ede fdB|AFA a2g|fdd d2:|
|:f|afa afa|b3 b2a|afa agf|gee e2g|
|a2a f2f|ede fdB|AFA A2g|fdd d2:|
